X: 27
T:Milkmaid (#137), The
M:6/8
L:1/8
S:Rice-Walsh manuscript
K:G
D|GDD EDD|GAB c2 d|edc BcA|AGE E2 D|
GDD EDD|GAB c2 d|edc BcA|AGG G2:|
|:d|edd gdd|edB c2 d|edc BcA|AGE E2 d|
edd gdd|edB c2 d|edc BcA|AGG G2:||

